X: 8
T:LE PREMIER SUR LE QUAI
M:3/4
L:1/8
Q:1/4=94
C:Christian DESNOS
K:C
|:EA2 Bc3/2B/2|cdc BA2|EA2 Bc3/2B/2|cdE de3|
a2a g2g|f2f e3|fed edc|dcB A2E:|!
|:G2A c3/2B/2c|d2g e3|1f3/2g/2f e3/2d/2c|d3/2c/2d ecA:|
2f3/2g/2f edc|dcB A2A|
